lib/flags/l/BDI.svg

<svg xmlns="http://www.w3.org/2000/svg" fill="none" viewBox="0 0 32 24"><mask id="BDI_svg__a" width="32" height="24" x="0" y="0" mask-type="alpha" maskUnits="userSpaceOnUse"><path fill="#fff" d="M0 0H32V24H0z"/></mask><g mask="url(#BDI_svg__a)"><rect width="32" height="24" fill="#5EAA22" rx="2"/><mask id="BDI_svg__b" width="48" height="30" x="-8" y="-3" fill="#000" maskUnits="userSpaceOnUse"><path fill="#fff" d="M-8-3H40V27H-8z"/><path fill-rule="evenodd" d="M16 12L32 0H0L16 12ZM16 12L0 24H32L16 12Z" clip-rule="evenodd"/></mask><path fill="#DD2C2B" fill-rule="evenodd" d="M16 12L32 0H0L16 12ZM16 12L0 24H32L16 12Z" clip-rule="evenodd"/><path fill="#fff" d="M32 0L33.5 2L39.5 -2.5H32V0ZM0 0V-2.5H-7.5L-1.5 2L0 0ZM0 24L-1.5 22L-7.5 26.5H0V24ZM32 24V26.5H39.5L33.5 22L32 24ZM30.5 -2L14.5 10L17.5 14L33.5 2L30.5 -2ZM0 2.5H32V-2.5H0V2.5ZM17.5 10L1.5 -2L-1.5 2L14.5 14L17.5 10ZM14.5 10L-1.5 22L1.5 26L17.5 14L14.5 10ZM0 26.5H32V21.5H0V26.5ZM33.5 22L17.5 10L14.5 14L30.5 26L33.5 22Z" mask="url(#BDI_svg__b)"/><path fill="#fff" fill-rule="evenodd" d="M16 18C19.3137 18 22 15.3137 22 12C22 8.68629 19.3137 6 16 6C12.6863 6 10 8.68629 10 12C10 15.3137 12.6863 18 16 18Z" clip-rule="evenodd"/><path fill="#DD2C2B" fill-rule="evenodd" stroke="#5EAA22" stroke-width=".25" d="M15.4301 10.3873 14.2681 10.4 14.8601 9.40002 14.2681 8.40002 15.4301 8.41275 16.0001 7.40002 16.5701 8.41275 17.7322 8.40002 17.1401 9.40002 17.7322 10.4 16.5701 10.3873 16.0001 11.4 15.4301 10.3873zM12.9301 14.4873 11.7681 14.5 12.3601 13.5 11.7681 12.5 12.9301 12.5127 13.5001 11.5 14.0701 12.5127 15.2322 12.5 14.6401 13.5 15.2322 14.5 14.0701 14.4873 13.5001 15.5 12.9301 14.4873zM17.9301 14.4873 16.7681 14.5 17.3601 13.5 16.7681 12.5 17.9301 12.5127 18.5001 11.5 19.0701 12.5127 20.2322 12.5 19.6401 13.5 20.2322 14.5 19.0701 14.4873 18.5001 15.5 17.9301 14.4873z" clip-rule="evenodd"/></g></svg>

<svg xmlns="http://www.w3.org/2000/svg" fill="none" viewBox="0 0 32 24"><mask id="BDI_svg__a" width="32" height="24" x="0" y="0" maskUnits="userSpaceOnUse"><path fill="#fff" d="M0 0h32v24H0z"/></mask><g mask="url(#BDI_svg__a)"><rect width="32" height="24" fill="#5EAA22" rx="2"/><mask id="BDI_svg__b" width="48" height="30" x="-8" y="-3" fill="#000" maskUnits="userSpaceOnUse"><path fill="#fff" d="M-8-3h48v30H-8z"/><path fill-rule="evenodd" d="M16 12L32 0H0l16 12zm0 0L0 24h32L16 12z" clip-rule="evenodd"/></mask><path fill="#DD2C2B" fill-rule="evenodd" d="M16 12L32 0H0l16 12zm0 0L0 24h32L16 12z" clip-rule="evenodd"/><path fill="#fff" d="M32 0l1.5 2 6-4.5H32V0zM0 0v-2.5h-7.5l6 4.5L0 0zm0 24l-1.5-2-6 4.5H0V24zm32 0v2.5h7.5l-6-4.5-1.5 2zM30.5-2l-16 12 3 4 16-12-3-4zM0 2.5h32v-5H0v5zM17.5 10L1.5-2l-3 4 16 12 3-4zm-3 0l-16 12 3 4 16-12-3-4zM0 26.5h32v-5H0v5zM33.5 22l-16-12-3 4 16 12 3-4z" mask="url(#BDI_svg__b)"/><path fill="#fff" fill-rule="evenodd" d="M16 18a6 6 0 100-12 6 6 0 000 12z" clip-rule="evenodd"/><path fill="#DD2C2B" fill-rule="evenodd" stroke="#5EAA22" stroke-width=".25" d="M15.43 10.387l-1.162.013.592-1-.592-1 1.162.013L16 7.4l.57 1.013 1.162-.013-.592 1 .592 1-1.162-.013L16 11.4l-.57-1.013zm-2.5 4.1l-1.162.013.592-1-.592-1 1.162.013.57-1.013.57 1.013 1.162-.013-.592 1 .592 1-1.162-.013-.57 1.013-.57-1.013zm5 0l-1.162.013.592-1-.592-1 1.162.013.57-1.013.57 1.013 1.162-.013-.592 1 .592 1-1.162-.013-.57 1.013-.57-1.013z" clip-rule="evenodd"/></g></svg>
